X: 6
T: N\aar vinden er
R: s\onderhoning
O: Danmark
Z: John Chambers <jc@trillian.mit.edu>
M: 2/4
L: 1/8
K: D
A \
| "D"de fe | dc dA | "G"gf gf | "A7"e2 zg \
| "D"ff gf | "A7"ef ed | cB cd | e2 za |
| "D"aa/a/ aa | "A7"gf eg | "(G)"gf ed | "A7"e2 f2 \
| "D"dc "G"dB | "D"AA de \
| f/f/d "A"ec | "D"d2 z |]
